X:27
T:Bucks of Oranmore
Z: id:dc-reel-27
M:C
L:1/8
K:D Major
A2FA A2dB|A2FA BEE2|A2FA A2Bd|egfd ecdB|!
A2FA A2dB|A2FA BEEF|DEFG AFAB|defd ecdB|]!
ADFD A2dB|ADFA BEE2|ADFD A2Bd|egfd ecdB|!
ADFD A2dB|ADFA BEEF|DEFG AFAB|defd efge|]!
a2fd edBd|a2fd eBB2|a2fd edBd|egfd eBB2|!
a2fd edBd|a2fd eBB2|f2af bfaf|egfd edBd|]!
f2df e2de|f2df eBB2|f2df e2df|egfd eBB2|!
f2df e2de|f2df eBB2|f2af bfaf|egfd edBd|]!
Adfd edfd|Adfd eBB2|Adfd edfd|egfd edBd|!
Adfd edfd|Adfd eBB2|f2af bfaf|egfd edBd|]!

